public/images/agent2.svg

<svg width="175" height="175" viewBox="0 0 175 175" fill="none" xmlns="http://www.w3.org/2000/svg">
<circle cx="87.5" cy="87.5" r="86.5" fill="white" stroke="#00C0FF"/>
<path d="M96.8116 112.405L104.063 107.165L133.461 138.4H42.539L71.9366 107.165L79.1884 112.405C84.609 116.321 91.3912 116.321 96.8116 112.405ZM41.3595 81.5111L51.6847 70.5405V88.9711L41.3595 81.5111ZM52.209 92.9119C52.2611 92.9556 52.3165 92.9957 52.375 93.0318L69.5863 105.467L40.6 136.265V84.5245L52.209 92.9119ZM97.0551 41.5766L102.881 47.7667H73.1187L78.9447 41.5766C83.9349 36.2745 92.0649 36.2745 97.0551 41.5766ZM113.938 86.6031C117.529 82.7871 123.336 82.7871 126.928 86.6031C130.539 90.4397 130.539 96.6748 126.928 100.511C123.336 104.327 117.529 104.327 113.938 100.511C110.327 96.6748 110.327 90.4397 113.938 86.6031ZM120.433 106.302C129.619 106.302 135.22 95.9376 131.09 87.6384L135.4 84.5245V136.265L106.414 105.467L111.342 101.906C113.561 104.616 116.824 106.302 120.433 106.302ZM129.523 85.2086C128.141 83.5203 126.349 82.2251 124.315 81.491V70.5405L134.64 81.5111L129.523 85.2086ZM124.732 95.0217C125.179 95.0217 125.549 94.8339 125.797 94.5337C126.034 94.2476 126.136 93.8899 126.136 93.5573C126.136 93.2247 126.034 92.867 125.797 92.5809C125.549 92.2807 125.179 92.0929 124.732 92.0929H121.846V88.9887C121.846 88.5511 121.685 88.1743 121.401 87.9097C121.126 87.6535 120.772 87.5352 120.433 87.5352C120.093 87.5352 119.739 87.6535 119.464 87.9097C119.181 88.1743 119.019 88.5511 119.019 88.9887V92.0929H116.133C115.686 92.0929 115.316 92.2807 115.068 92.5809C114.832 92.867 114.73 93.2247 114.73 93.5573C114.73 93.8899 114.832 94.2476 115.068 94.5337C115.316 94.8339 115.686 95.0217 116.133 95.0217H119.019V98.1259C119.019 98.5634 119.18 98.9403 119.464 99.2048C119.739 99.4611 120.093 99.5794 120.433 99.5794C120.772 99.5794 121.126 99.4611 121.401 99.2048C121.685 98.9403 121.846 98.5634 121.846 98.1259V95.0217H124.732ZM66.4 59.2091C65.9534 59.2091 65.5829 59.3969 65.3349 59.6971C65.0986 59.9832 64.9967 60.3409 64.9967 60.6735C64.9967 61.0061 65.0986 61.3638 65.3349 61.6499C65.5829 61.9501 65.9534 62.1379 66.4 62.1379H109.6C110.047 62.1379 110.417 61.9501 110.665 61.6499C110.901 61.3638 111.003 61.0061 111.003 60.6735C111.003 60.3409 110.901 59.9832 110.665 59.6971C110.417 59.3969 110.047 59.2091 109.6 59.2091H66.4ZM66.4 65.9515C65.9534 65.9515 65.5829 66.1393 65.3349 66.4395C65.0986 66.7256 64.9967 67.0833 64.9967 67.4159C64.9967 67.7485 65.0986 68.1062 65.3349 68.3923C65.5829 68.6925 65.9534 68.8803 66.4 68.8803H109.6C110.047 68.8803 110.417 68.6925 110.665 68.3923C110.901 68.1062 111.003 67.7485 111.003 67.4159C111.003 67.0833 110.901 66.7256 110.665 66.4395C110.417 66.1393 110.047 65.9515 109.6 65.9515H66.4ZM66.4 72.6938C65.9534 72.6938 65.5829 72.8817 65.3349 73.1819C65.0986 73.4679 64.9967 73.8257 64.9967 74.1583C64.9967 74.4908 65.0986 74.8486 65.3349 75.1346C65.5829 75.4348 65.9534 75.6227 66.4 75.6227H109.6C110.047 75.6227 110.417 75.4348 110.665 75.1346C110.901 74.8486 111.003 74.4908 111.003 74.1583C111.003 73.8257 110.901 73.4679 110.665 73.1819C110.417 72.8817 110.047 72.6938 109.6 72.6938H66.4ZM66.4 79.4362C65.9534 79.4362 65.5829 79.624 65.3349 79.9242C65.0986 80.2103 64.9967 80.568 64.9967 80.9006C64.9967 81.2332 65.0986 81.5909 65.3349 81.877C65.5829 82.1772 65.9534 82.365 66.4 82.365H109.6C110.047 82.365 110.417 82.1772 110.665 81.877C110.901 81.5909 111.003 81.2332 111.003 80.9006C111.003 80.568 110.901 80.2103 110.665 79.9242C110.417 79.624 110.047 79.4362 109.6 79.4362H66.4ZM66.4 89.1074H109.156C107.967 92.489 108.19 96.275 109.776 99.4758L95.2001 110.007C90.7597 113.215 85.2405 113.215 80.8001 110.007L54.5119 91.0137V53.8989C54.5119 52.1054 55.8896 50.6955 57.4915 50.6955H118.508C120.111 50.6955 121.488 52.1054 121.488 53.8989V80.8607C117.032 80.4449 112.84 82.6684 110.438 86.4616C110.208 86.2855 109.922 86.1788 109.6 86.1788H66.4C65.9535 86.1788 65.5829 86.3666 65.335 86.6668C65.0986 86.9528 64.9967 87.3105 64.9967 87.6431C64.9967 87.9757 65.0986 88.3334 65.335 88.6195C65.5829 88.9196 65.9535 89.1074 66.4 89.1074Z" fill="url(#paint0_linear_91_1355)" stroke="url(#paint1_linear_91_1355)" stroke-width="1.2"/>
<defs>
<linearGradient id="paint0_linear_91_1355" x1="40" y1="88" x2="136" y2="88" gradientUnits="userSpaceOnUse">
<stop offset="0.395452" stop-color="#084196"/>
<stop offset="1" stop-color="#00C0FF"/>
</linearGradient>
<linearGradient id="paint1_linear_91_1355" x1="40" y1="88" x2="136" y2="88" gradientUnits="userSpaceOnUse">
<stop stop-color="#084398"/>
<stop offset="1" stop-color="#00BEFD"/>
</linearGradient>
</defs>
</svg>

<svg xmlns="http://www.w3.org/2000/svg" width="175" height="175" fill="none"><circle cx="87.5" cy="87.5" r="86.5" fill="#fff" stroke="#00C0FF"/><path fill="url(#a)" stroke="url(#b)" stroke-width="1.2" d="m96.812 112.405 7.251-5.24 29.398 31.235H42.539l29.398-31.235 7.251 5.24c5.421 3.916 12.203 3.916 17.624 0ZM41.36 81.511l10.325-10.97v18.43zm10.849 11.4q.078.067.166.12l17.211 12.436L40.6 136.265v-51.74zm44.846-51.334 5.826 6.19H73.119l5.826-6.19c4.99-5.302 13.12-5.302 18.11 0Zm16.883 45.026c3.591-3.816 9.398-3.816 12.99 0 3.611 3.837 3.611 10.072 0 13.908-3.592 3.816-9.399 3.816-12.99 0-3.611-3.836-3.611-10.071 0-13.908Zm6.495 19.699c9.186 0 14.787-10.364 10.657-18.664l4.31-3.114v51.741l-28.986-30.798 4.928-3.561c2.219 2.71 5.482 4.396 9.091 4.396Zm9.09-21.093c-1.382-1.689-3.174-2.984-5.208-3.718v-10.95l10.325 10.97zm-4.791 9.813a1.35 1.35 0 0 0 1.065-.488c.237-.286.339-.644.339-.977s-.102-.69-.339-.976a1.35 1.35 0 0 0-1.065-.488h-2.886v-3.104c0-.438-.161-.815-.445-1.08a1.42 1.42 0 0 0-.968-.374c-.34 0-.694.118-.969.375-.283.264-.445.641-.445 1.079v3.104h-2.886a1.35 1.35 0 0 0-1.065.488 1.54 1.54 0 0 0-.338.976c0 .333.102.69.338.977.248.3.618.488 1.065.488h2.886v3.104c0 .437.161.814.445 1.079.275.256.629.374.969.374s.693-.118.968-.374c.284-.265.445-.642.445-1.08v-3.103zM66.4 59.209c-.447 0-.817.188-1.065.488a1.54 1.54 0 0 0-.338.976c0 .333.102.69.338.977.248.3.618.488 1.065.488h43.2a1.35 1.35 0 0 0 1.065-.488c.236-.286.338-.644.338-.977s-.102-.69-.338-.976a1.35 1.35 0 0 0-1.065-.488zm0 6.742c-.447 0-.817.188-1.065.489a1.54 1.54 0 0 0-.338.976c0 .333.102.69.338.976.248.3.618.488 1.065.488h43.2a1.35 1.35 0 0 0 1.065-.488c.236-.286.338-.643.338-.976s-.102-.69-.338-.977a1.35 1.35 0 0 0-1.065-.487zm0 6.743c-.447 0-.817.188-1.065.488a1.54 1.54 0 0 0-.338.976c0 .333.102.69.338.977.248.3.618.488 1.065.488h43.2c.447 0 .817-.188 1.065-.488.236-.286.338-.644.338-.977s-.102-.69-.338-.976a1.35 1.35 0 0 0-1.065-.488zm0 6.742c-.447 0-.817.188-1.065.488a1.54 1.54 0 0 0-.338.977c0 .332.102.69.338.976.248.3.618.488 1.065.488h43.2a1.35 1.35 0 0 0 1.065-.488c.236-.286.338-.644.338-.976 0-.333-.102-.69-.338-.977a1.35 1.35 0 0 0-1.065-.488zm0 9.671h42.756c-1.189 3.382-.966 7.168.62 10.369L95.2 110.007c-4.44 3.208-9.96 3.208-14.4 0L54.512 91.014V53.899c0-1.794 1.378-3.203 2.98-3.203h61.016c1.603 0 2.98 1.41 2.98 3.203V80.86c-4.456-.416-8.648 1.807-11.05 5.6a1.36 1.36 0 0 0-.838-.282H66.4c-.447 0-.817.188-1.065.488a1.54 1.54 0 0 0-.338.976c0 .333.102.69.338.977.248.3.619.487 1.065.487Z"/><defs><linearGradient id="a" x1="40" x2="136" y1="88" y2="88" gradientUnits="userSpaceOnUse"><stop offset=".395" stop-color="#084196"/><stop offset="1" stop-color="#00C0FF"/></linearGradient><linearGradient id="b" x1="40" x2="136" y1="88" y2="88" gradientUnits="userSpaceOnUse"><stop stop-color="#084398"/><stop offset="1" stop-color="#00BEFD"/></linearGradient></defs></svg>
